remix/Business/briefcase-5-line.svg

<svg viewBox="0 0 24 24" fill="currentColor" xmlns="http://www.w3.org/2000/svg"><path d="M7 5V2C7 1.44772 7.44772 1 8 1H16C16.5523 1 17 1.44772 17 2V5H21C21.5523 5 22 5.44772 22 6V20C22 20.5523 21.5523 21 21 21H3C2.44772 21 2 20.5523 2 20V6C2 5.44772 2.44772 5 3 5H7ZM16 15H13V16H11V15H8V19H16V15ZM8 7V13H11V12H13V13H16V7H8ZM6 13V7H4V13H6ZM18 13H20V7H18V13ZM6 15H4V19H6V15ZM18 15V19H20V15H18ZM9 3V5H15V3H9Z"/></svg>

<svg viewBox="0 0 24 24" xmlns="http://www.w3.org/2000/svg"><path fill="none" d="M0 0h24v24H0Z"/><path d="M7 5V2v0c0-.56.44-1 1-1h8v0c.55 0 1 .44 1 1v3h4v0c.55 0 1 .44 1 1v14 0c0 .55-.45 1-1 1H3v0c-.56 0-1-.45-1-1V6v0c0-.56.44-1 1-1h4Zm9 10h-3v1h-2v-1H8v4h8v-4ZM8 7v6h3v-1h2v1h3V7H8Zm-2 6V7H4v6h2Zm12 0h2V7h-2v6ZM6 15H4v4h2v-4Zm12 0v4h2v-4h-2ZM9 3v2h6V3H9Z"/></svg>
